X:110
T: Nrrchen, sei nicht sprde! (1-36), S. 94
N: K1084
O: Luxemburg
S: KINTZELE, Guillaume: An der Ucht, Bd. 1, Luxemburg 1926]
N: in der Quelle mit einer 2. Stimme versehen
R: Ermahnung an die Vergnglichkeit der Jugend und Schnheit]
M: 6/8
L: 1/8
K: G
 | G2GGBe | d2cA3 |
BdBAGA | G3z3 |
G2GGBe | d2cA3 |
BdBAGA | G3z3 |
e2ccde | d3B3 |
cBABAG | d4z2 |
G2GGBe | d2cA3 |
BdBAGA | G3z3 |
e2ccde | d3B3 |
cBABAG | d4z2 |
G2GGBe | d2cA3 |
BdBAGA | G3z3

@@@ Tune index: 8164
